Flat-Remix-Blue/mimetypes/scalable/application-users.svg

<svg xmlns="http://www.w3.org/2000/svg" xmlns:xlink="http://www.w3.org/1999/xlink" width="36pt" height="36pt" version="1.1" viewBox="0 0 36 36"> <defs> <clipPath id="clip1"> <path d="M 20 2 L 31 2 L 31 13 L 20 13 Z M 20 2"/> </clipPath> <clipPath id="clip2"> <path d="M 20.515625 2.625 L 30.328125 12.4375 L 22.023438 12.4375 C 21.292969 12.4375 20.515625 11.660156 20.515625 10.929688 Z M 20.515625 2.625"/> </clipPath> <image id="image6" width="36" height="36" xlink:href="data:image/png;base64,iVBORw0KGgoAAAANSUhEUgAAACQAAAAkCAYAAADhAJiYAAAABmJLR0QA/wD/AP+gvaeTAAAAmklEQVRYhe3T0QqCQBBG4aOtYEoUvf9Lildltl00C4tkbBeTIP+BAUEYP1YW1Pcqh53B9kbgaVPcwQF0tAmGSrMZ6AKcDQXw+AUVHEAtcAUaewYYgYmC3+cBCkAPnDJQMcoDVNnebgEqQnmAclTz4d0I3P4JStc9AjXvk4qLWQV53LLeEOl05gw4A3dgcPiuUkoppZRSSqk99gLWvSJpuDnlsAAAAABJRU5ErkJggg=="/> </defs> <g> <path style="fill:rgb(54.901%,25.882%,67.058%)" d="M 7.347656 3.152344 C 6.675781 3.152344 6.042969 3.785156 6.042969 4.457031 L 6.042969 31.847656 C 6.042969 32.480469 6.714844 33.152344 7.347656 33.152344 L 28.21875 33.152344 C 28.851562 33.152344 29.523438 32.480469 29.523438 31.847656 L 29.523438 11.632812 L 21.042969 3.152344 Z M 7.347656 3.152344"/> <g clip-path="url(#clip1)"> <g clip-path="url(#clip2)"> <use xlink:href="#image6"/> </g> </g> <path style="fill:rgb(68.235%,47.843%,76.862%)" d="M 21.042969 3.152344 L 29.523438 11.632812 L 22.347656 11.632812 C 21.714844 11.632812 21.042969 10.960938 21.042969 10.328125 Z M 21.042969 3.152344"/> <path style="fill:rgb(100.000%,100.000%,100.000%)" d="M 20.171875 14.085938 L 21.621094 14.085938 C 23.796875 14.085938 23.796875 16.324219 23.796875 16.324219 L 23.796875 18.535156 C 23.796875 19.28125 22.347656 20.796875 22.347656 20.796875 L 22.347656 21.539062 L 24.523438 23.03125 L 24.523438 24.523438 L 16.550781 24.523438 L 16.550781 23.03125 L 19.449219 21.539062 L 19.449219 20.796875 C 19.449219 20.796875 17.996094 19.28125 18 18.535156 L 18 16.324219 C 18 16.324219 18 14.085938 20.175781 14.085938 Z M 15.101562 15.578125 L 16.550781 15.578125 L 16.550781 18.535156 C 16.550781 19.28125 18 20.792969 18 20.792969 L 15.101562 22.285156 L 15.101562 23.777344 L 11.476562 23.753906 L 11.476562 23.007812 L 14.375 21.539062 L 14.375 20.796875 C 14.375 20.796875 12.921875 19.28125 12.925781 18.535156 L 12.925781 17.8125 C 12.925781 15.578125 15.101562 15.578125 15.101562 15.578125 Z M 15.101562 15.578125"/> </g> </svg>

<svg width="36pt" height="36pt" version="1.1" viewBox="0 0 36 36" xmlns="http://www.w3.org/2000/svg"><defs><filter id="a" x="-.192" y="-.192" width="1.384" height="1.384" color-interpolation-filters="sRGB"><feGaussianBlur stdDeviation="0.67843748"/></filter></defs><path d="m7.3477 3.1523c-0.67188 0-1.3047 0.63281-1.3047 1.3047v27.391c0 0.63281 0.67188 1.3047 1.3047 1.3047h20.871c0.63281 0 1.3047-0.67188 1.3047-1.3047v-20.215l-8.4805-8.4805z" fill="#8b41aa"/><path d="m20.668 3.5272 8.4805 8.4805h-7.1758c-0.63281 0-1.3047-0.67187-1.3047-1.3047z" filter="url(#a)" opacity=".2"/><path d="m21.043 3.1523 8.4805 8.4805h-7.1758c-0.63281 0-1.3047-0.67187-1.3047-1.3047z" fill="#ad79c3"/><path d="m20.172 14.086h1.4492c2.1758 0 2.1758 2.2383 2.1758 2.2383v2.2109c0 0.74609-1.4492 2.2617-1.4492 2.2617v0.74219l2.1758 1.4922v1.4922h-7.9727v-1.4922l2.8984-1.4922v-0.74219s-1.4531-1.5156-1.4492-2.2617v-2.2109s0-2.2383 2.1758-2.2383zm-5.0703 1.4922h1.4492v2.957c0 0.74609 1.4492 2.2578 1.4492 2.2578l-2.8984 1.4922v1.4922l-3.625-0.023438v-0.74609l2.8984-1.4688v-0.74219s-1.4531-1.5156-1.4492-2.2617v-0.72266c0-2.2344 2.1758-2.2344 2.1758-2.2344z" fill="#fff"/></svg>
